X:54
T: L'Ma`an Achai
O:klezmer
C: Slomo Carlebach
Z: John Chambers <jc@trillian.mit.edu>
R: waltz
M: 3/4
L: 1/4
K: Em
|: B \
| "Em"B ^A B | g f e | "Am"c6- | c4 c \
| c B A | g f e | "Em"B3- | B2 B |
| "Em"B ^A B | g f e | "Am"d c B | A3 \
| "B7"B3 | f2 g | "Em"e3- | ez :|
|: e/f/\
| "Em"g2 g | g f e | g2 g | g f e \
| "Am"a2 a | b2 a | "Em"g3- | g2 e/f/|
| "Em"g2 g | g f e | g2 g | g f e \
| "B7"f2 a | g2 {fef}f | "Em"e3- | ez :|





